school/img/country/CH.svg

<svg width="13" height="12" viewBox="0 0 13 12" fill="none" xmlns="http://www.w3.org/2000/svg">
<rect width="13" height="12" rx="2" fill="white"/>
<mask id="mask0" mask-type="alpha" maskUnits="userSpaceOnUse" x="0" y="0" width="13" height="12">
<rect width="13" height="12" rx="2" fill="white"/>
</mask>
<g mask="url(#mask0)">
<rect width="13" height="12" fill="#FF0000"/>
<path fill-rule="evenodd" clip-rule="evenodd" d="M5.57138 7.20002H4.04757C3.86347 7.20002 3.71423 7.05079 3.71423 6.86669V5.13336C3.71423 4.94926 3.86347 4.80002 4.04757 4.80002H5.57138V2.73336C5.57138 2.54926 5.72061 2.40002 5.90471 2.40002H7.09519C7.27928 2.40002 7.42852 2.54926 7.42852 2.73336V4.80002H8.95233C9.13642 4.80002 9.28566 4.94926 9.28566 5.13336V6.86669C9.28566 7.05079 9.13642 7.20002 8.95233 7.20002H7.42852V9.26669C7.42852 9.45079 7.27928 9.60002 7.09519 9.60002H5.90471C5.72061 9.60002 5.57138 9.45079 5.57138 9.26669V7.20002Z" fill="white"/>
</g>
</svg>

<svg width="13" height="12" fill="none" xmlns="http://www.w3.org/2000/svg"><rect width="13" height="12" rx="2" fill="#fff"/><mask id="a" maskUnits="userSpaceOnUse" x="0" y="0" width="13" height="12"><rect width="13" height="12" rx="2" fill="#fff"/></mask><g mask="url(#a)"><path fill="red" d="M0 0h13v12H0z"/><path fill-rule="evenodd" clip-rule="evenodd" d="M5.571 7.2H4.048a.333.333 0 01-.334-.333V5.133c0-.184.15-.333.334-.333H5.57V2.733c0-.184.15-.333.334-.333h1.19c.184 0 .334.15.334.333V4.8h1.523c.184 0 .334.15.334.333v1.734c0 .184-.15.333-.334.333H7.43v2.067c0 .184-.15.333-.334.333h-1.19a.333.333 0 01-.334-.333V7.2z" fill="#fff"/></g></svg>
